!!!OTL: Der Maedchenmoerder (Halewijn - Ulinger) Es ritten drei Reiter wohl ueber den Rhein
!!!ARE: Europa, Mitteleuropa, Deutschland (BRD), Hessen
!!!YOR: 2, S. 112
!!    1842 aufgezeichnet
!!!SCT: Q0041W
!!!YEM: Copyright 1995, estate of Helmut Schaffrath.
**kern
*ICvox
*Ivox
*M6/8
*k[f#]
*G:
{8d
=1
8d
8e
8f#
8.g
16a
8b
=2
8a
8a
16g
16e
4d}
{16d
16f#
=3
8a
8a
8a
8dd
8dd
8dd
=4
4b
8a
4g}
{16g
16b
=5
8dd
8dd
8dd
8.ee
16ee
8ee
=6
4dd
8cc
4b}
{8dd
=7
4ee
8ee
8dd
8cc
8b
=8
4a
8cc
4b}
==
!!!AGN: Ballade, Verfuehrung, Mord, Mordversuch bzw. Rache
!!!ONB: ESAC (Essen Associative Code) Database: BALLADE
!!!AMT: compound duple
!!!AIN: vox
!!!EED: Helmut Schaffrath
!!!EEV: 1.0
*-
